X:1
T:Title
%%score { ( 1 3 5 ) | ( 2 4 6 ) }
L:1/8
M:4/4
K:Bb
V:1 treble nm="Grand Piano"
V:3 treble 
V:5 treble 
V:2 bass 
V:4 bass 
V:6 bass 
V:1
 z4 z2[Q:1/4=96] [Fd]>[Ec] | [DB]>[CA] [DB]>[Ec] [DB]>[DF] [B,D]>[CE] | %2
 [DF]>[DF] [_DG]>[DG] [=DF]2 [DB]>[FA] | G>G G>[FA] [GB]>[Gc] [GB]>[EG] | %4
 [DF]>d d>[FB] [Fc]2 [FB]>[Fc] | [Fd]>[=E_d] [F=d]>[DB] [_Ec]<[DB] [DB]>[FA] | %6
 [EG]>[Ge] [Ge]>[EG] [DF]2 [DF]>[DF] | %7
[M:35/32] [Bd]>[Bd][Bd]>[_Af][Af]/ [Ge]2- [Ge]/(3:2:4[GB]3/2-[GB]/4[Gc]3/4-[Gc]/8 | %8
[M:17/16] z/ z/ z .e3/2 z/ z c3/4 z/4 z/ z/ z/ z |[M:1/4] (3:2:2[DF]2 [Fd] | %10
[M:4/4] d6- d/4 z/4 z/ z | z4 z2 (3:2:2[_AB]2 [AB] | B6- B/4 z/4 z/ z | z4 z2 (3:2:2[DF]2 [DF] | %14
 z4 (5:4:5[Fd]2 [Fd]/ [Fc]/-[Fc]3/2[FB]/ | %15
 (5:4:5[EG]2 [Ge]/ [Ge]/-[Ge]3/2[EG]/ z2 (3:2:2[DF]2 [DF] | %16
[M:35/32] [Bd]3/2[Bd]3/4 z z/4 (3:2:8[_Af]3/4-[Af]/8[Af]3/8-[Af]/16 z3/8 z/16 [Ge]3/4-[Ge]/8-[Ge]-[Ge-]/<[B-e]/B/->[G-Bc-]/[Gc]/ | %17
[M:17/16] z/ z/ z .e3/2 z/ z/ z/ z/ z/ z/ z/ z/ z |] %18
V:2
 z4 z2 [B,,B,]>[B,,B,] | [B,,F,]>[B,,F,] [B,,F,]>[B,,F,] [B,,F,]>[B,,B,] [B,,F,]>[B,,F,] | %2
 [B,,B,]>[B,,B,] [B,,B,]>[B,,B,] [B,,B,]2 [B,,B,]>[D,B,] | %3
 [E,B,E]>[E,B,E] [E,B,E]>[E,B,] [E,E]>[E,E] [E,E]>[E,B,] | %4
 [B,,B,]>[K:treble][B,F] [B,F]>[K:bass][D,B,] [F,A,]2 [D,B,]>[C,A,] | %5
 [B,,B,]>[B,,B,] [B,,B,]>[B,,F,] [B,,F,]<[B,,F,] [B,,B,]>[D,B,] | %6
 [E,B,]>[E,B,] [E,B,]>[E,B,] [B,,B,]2 [B,,B,]>[B,,B,] | %7
[M:35/32] [G,B,]>[G,B,][G,B,]>[D,B,][E,B,]/ [E,B,]2- [E,B,]/(3:2:4[E,E]3/2-[E,E]/4[E,E]3/4-[E,E]/8 | %8
[M:17/16] z/ z/ z .[F,CF]3/2 z/ z [F,A,E]3/4 z/4 z/ z/ z/ z |[M:1/4] (3:2:2[B,,B,]2 [B,,B,] | %10
[M:4/4] z4 (5:4:5[B,,B,]2 [B,,B,]/ [F,A,E]/-[F,A,E]3/2[F,A,F]/ | %11
 (5:4:5[B,,B,]2 [B,,B,]/ [B,,G,]/-[B,,G,]3/2[B,,G,]/ z2 (3:2:2[D,B,]2 [D,B,] | %12
 (5:4:5[E,E]2 [E,E]/ [E,E]/-[E,E]3/2[E,E]/ z4 | %13
 (5:4:5[B,,B,]2 [B,,B,]/ [C,A,]/-[C,A,]3/2[C,A,]/ z2 (3:2:2[B,,B,]2 [B,,B,] | %14
 z4 (5:4:5[B,,B,]2 [B,,B,]/ [C,A,]/-[C,A,]3/2[D,B,]/ | %15
 (5:4:5[E,B,]2 [E,B,]/ [E,B,]/-[E,B,]3/2[E,B,]/ z2 (3:2:2[B,,B,]2 [B,,B,] | %16
[M:35/32] z2 [G,B,]3/2-[G,B,]/4 z4 z |[M:17/16] z/ z/ z .C3/2 z/ z/ z/ z/ z/ z/ z/ z/ z |] %18
V:3
 x8 | x8 | x8 | x8 | x8 | x8 | x8 |[M:35/32] x35/4 |[M:17/16] (3:2:6d4- d/4 d4- d/4 [DB]4- [DB]/4 | %9
[M:1/4] x2 |[M:4/4] (3:2:2z2 B z2 z4 | (5:4:5[DB-]2 [DB-]/ [EB]/-[EB-]3/2[EB-]/ B2- B/4 z/4 z/ z | %12
 (9:8:8G2 G2 G/ G3/2G/G/-G3/2B/ | (5:4:5[DF-]2 [DF-]/ [EF]/-[EF-]3/2[EF-]/ F2- F/4 z/4 z/ z | %14
 (5:4:5[DB]2 [CA]/ [DB]/-[DB]3/2[Ec]/ z4 | z4 [DF]2- [DF]/4 z/4 z/ z | %16
[M:35/32] z2 [Bd]3/2-[Bd]/4 z2 z3/4 G2 z/4 |[M:17/16] d/-d-<d z/ z/ z/ z/ z/ z/ z/ z/ z/ z/ z |] %18
V:4
 x8 | x8 | x8 | x8 | x3/2[K:treble] x2[K:bass] x9/2 | x8 | x8 |[M:35/32] x35/4 | %8
[M:17/16] (3:2:6[F,B,F]4- [F,B,F]/4 [F,B,F]4- [F,B,F]/4 [B,,B,]4- [B,,B,]/4 |[M:1/4] x2 | %10
[M:4/4] (5:4:5[B,,B,]2 [B,,B,]/ [B,,B,]/-[B,,B,]3/2[B,,B,]/ z4 | z4 [B,,F,]2- [B,,F,]/4 z/4 z/ z | %12
 z4 (5:4:5[E,E]2 [E,E]/ [E,B,E]/-[E,B,E]3/2[E,G,E]/ | z4 [B,,B,]2- [B,,B,]/4 z/4 z/ z | %14
 (5:4:5[B,,F,]2 [B,,F,]/ [B,,F,]/-[B,,F,]3/2[B,,F,]/ z4 | z4 [B,,B,]2- [B,,B,]/4 z/4 z/ z | %16
[M:35/32] [G,B,]3/2[G,B,]3/4 z z/4 (3:2:8[D,B,]3/4-[D,B,]/8[E,B,]3/8-[E,B,]/16 z3/8 z/16 [E,B,]3/4-[E,B,]/8-[E,B,]-[E,B,-]/<[E,-B,E-]/[E,E]3/4[E,E]3/4 | %17
[M:17/16] B,/-B,-<B, z/ z/ z/ z/ z/ z/ z/ z/ z/ z/ z |] %18
V:5
 x8 | x8 | x8 | x8 | x8 | x8 | x8 |[M:35/32] x35/4 |[M:17/16] x17/2 |[M:1/4] x2 | %10
[M:4/4] (9:8:8F2 A2 G/ F3/2F/c/-c3/2d/ | z4 D2- D/4 z/4 z/ z | (3:2:2z2 G z2 z4 | %13
 z4 D2- D/4 z/4 z/ z | x8 | x8 |[M:35/32] x35/4 | %17
[M:17/16] z/ z/ z/ z d/-d-<dc/[DB]/-[DB]/-[DB]-<[DB] |] %18
V:6
 x8 | x8 | x8 | x8 | x3/2[K:treble] x2[K:bass] x9/2 | x8 | x8 |[M:35/32] x35/4 |[M:17/16] x17/2 | %9
[M:1/4] x2 |[M:4/4] x8 | x8 | x8 | x8 | x8 | x8 |[M:35/32] x35/4 | %17
[M:17/16] [F,F]-<[F,F][F,F]/[F,B,F]/-[F,B,F]-<[F,B,F][F,A,E]/[B,,B,]/-[B,,B,]/-[B,,B,]-<[B,,B,] |] %18

